!!!!SEGMENT: pl-wtm--r-2157_wysocki-kasper-napoleon--klatka.krn
!!!cenid: 18xx:2075
!!!COM: Wysocki, Kasper Napoleon
!!!COM-rismid: pe41024789
!!!CDT: 1810-1850
!!!CNT: Polish
!!!OTL: Klatka
!!!PDT:
!!!AGN: Secular
!!!SMS-siglum: PL-Wtm
!!!SMS-shelfmark: R 2157
!!!SMS-shelfwork: W
!!!SMS-variant:
!!!SMS-altvar:
!!!NIFC-rismid: 1001141394
!!!URL-scan: http://repozytorium.nifc.pl/skany/pl-wtm-nut--r2157
!!!ONB-nifc:
!!!key:
**kern	**kern	**dynam	**kern	**text	**text	**dynam
*part2	*part2	*part2	*part1	*part1	*part1	*part1
*staff3	*staff2	*	*staff1	*staff1	*staff1	*
*Iempty	*Iforte	*	*Ivox	*	*	*
*	*I"fp	*	*I"[Głos]	*	*	*
*clefF4	*clefG2	*	*clefG2	*	*	*
*k[f#c#]	*k[f#c#]	*	*k[f#c#]	*	*	*
*D:	*D:	*	*D:	*	*	*
*>[A,B,A,B,C,B,A]	*>[A,B,A,B,C,B,A]	*	*>[A,B,A,B,C,B,A]	*	*	*
*M6/8	*M6/8	*	*M6/8	*	*	*
*>A	*>A	*	*>A	*	*	*
!	!LO:TX:a:B:t=Allegretto scherzo	!	!	!	!	!
.	16qqa/LL	.	.	.	.	.
.	16qqb/	.	.	.	.	.
.	16qqcc#/JJ	.	.	.	.	.
8r	(8bT\	p	8ryy	.	.	.
=1	=1	=1	=1	=1	=1	=1
*	*^	*	*	*	*	*
4r	8a|\)	4ryy	.	2.ryy	.	.	.
.	8r	.	.	.	.	.	.
!	!	!LO:N:vis=4	!	!	!	!	!
(<8AA/ 8AAA/	16e|/LL	(<8c#</ 8G</	.	.	.	.	.
!	!LO:TX:t=P:problem:błędnie wpisana kreska taktowa w górnej pięciolinii	!	!	!	!	!	!
.	16g/JJ	.	.	.	.	.	.
8D\ 8DD\)	8f#/ 8d|>/	8A</)	.	.	.	.	.
4r	8r	4ryy	.	.	.	.	.
.	(>16qqa/LL	.	.	.	.	.	.
.	16qqb/	.	.	.	.	.	.
.	16qqcc#/JJ	.	.	.	.	.	.
.	8bT\	.	.	.	.	.	.
=2	=2	=2	=2	=2	=2	=2	=2
4r	8a|\)	4ryy	.	2.ryy	.	.	.
.	8r	.	.	.	.	.	.
!	!	!LO:N:vis=4	!	!	!	!	!
(<8AA/ 8AAA/	16e/LL	(<8c#</ 8G</	.	.	.	.	.
.	16g/JJ	.	.	.	.	.	.
!	!	!LO:N:vis=4	!	!LO:TX:i:t=Wiersz Braodzińskiego.	!	!	!
4D\ 4DD\)	8f#/ 8d|>/	8A</)	.	.	.	.	.
.	4r	4ryy	.	.	.	.	.
8r	.	.	.	.	.	.	.
*	*v	*v	*	*	*	*	*
=3	=3	=3	=3	=3	=3	=3
!	!LO:TX:t=P:problem:arpeggio przez 2 systemy	!LO:DY:rj	!	!	!	!
8G/: 8E/: 8BB/: 8GG:/	8b/: 8g/: 8e:/	ff	2.ryy	.	.	.
*	*8va	*	*	*	*	*
!	!LO:TX:t=P:problem:arpeggio przez 2 systemy	!	!	!	!	!
8g\: 8e\: 8B\: 8G:\	8ggg\: 8bb\: 8gg:\	.	.	.	.	.
8r	8r	.	.	.	.	.
8a\: 8f#\: 8d\: 8A:\	8fff#\: 8ddd\: 8aa:\	>	.	.	.	.
*	*X8va	*	*	*	*	*
4r	4aT\	]]	.	.	.	.
.	16qqg#X/LL	.	.	.	.	.
.	16qqa/JJ	.	.	.	.	.
=4	=4	=4	=4	=4	=4	=4
*	*^	*	*	*	*	*
4.AA/ 4.AAA/	8.b:/L	16e\: 16c#<\: 16G<:\	.	2.ryy	.	.	.
.	.	16ryy	.	.	.	.	.
.	.	8ryy	.	.	.	.	.
.	16a/L	.	.	.	.	.	.
.	16g/	2ryy	p	.	.	.	.
.	16e/JJ	.	.	.	.	.	.
!	!LO:TX:a:t=Fine.	!	!	!	!	!	!
4.D\ 4.DD\	4.d</ 4.F#</	.	.	.	.	.	.
*	*v	*v	*	*	*	*	*
!!LO:LB:g=original
=5||	=5||	=5||	=5||	=5||	=5||	=5||
*>B	*>B	*	*>B	*	*	*
!LO:TX:t=[segno]	!	!	!LO:TX:t=[segno]	!	!	!
4D\ 4DD\	4f#/ 4d/ 4A</	<	4f#/	Spie-	W li-	p
8D\ 8DD\	8g/ 8e/ 8A</	.	8g/	-way	-cznych	<
4D\ 4DD\	4a/ 4f#/ 4d/ 4A</	.	4a/	ha-	wło-	.
8D\ 8DD\	8a/ 8f#/ 8d/ 8A</	[[	8a/	-say	-ściach	[[
=6	=6	=6	=6	=6	=6	=6
*	*^	*	*	*	*	*
*2\right	*	*	*	*	*	*	*
2.D\ 2.DD\	4.b/	2.f#/: 2.d/: 2.A<:/	>	(4.b\	chło-	Jó-	>
.	8a/L	.	.	8a/L	.	.	.
.	8f#/	.	.	8f#/J)	.	.	.
.	8d/J	.	]]	8d/	-pcze	-zio	]
=7	=7	=7	=7	=7	=7	=7	=7
2.AA/ 2.AAA/	[4.f#:/	2.c#/: 2.G<:/	.	[4.f#/	mło-	zna-	.
.	4f#/]	.	.	(4f#/]	.	.	.
.	8e/	.	.	8e/)	.	.	.
*	*v	*v	*	*	*	*	*
=8	=8	=8	=8	=8	=8	=8
[>4.D\ [>4.DD\	[4.d/ [>4.D</	.	8d/	-dy	-ny	.
.	.	.	4r	.	.	.
!LO:N:vis=8	!	!	!	!	!	!
4D\] 4DD\]	4d/] 4D</]	.	4r	.	.	.
8r	8r	.	8r	.	.	.
=9	=9	=9	=9	=9	=9	=9
4D\ 4DD\	4f#/ 4d/ 4A</	<	4f#/	Kró-	Bo	<
8D\ 8DD\	8g/ 8e/ 8A</	.	8g/	-tka	za-	.
4D\ 4DD\	4a/ 4f#/ 4d/ 4A</	.	4a/	do-	-da-	.
8D\ 8DD\	8a/ 8f#/ 8d/ 8A</	[[	8a/	-ba	-wał	[[
=10	=10	=10	=10	=10	=10	=10
*	*^	*	*^	*	*	*
*	*	*2\right	*	*	*	*	*	*
2.D/ 2.DD/	4.dd:/	2.f#\: 2.d:\	>	4.dd\	4.ryy	twey	cór-	>
.	8a/L	.	.	(8a/L	4ryy	swo-	.	.
.	8f#/	.	.	8f#/	.	.	.	.
.	8d/J	.	]]	8d/J)	8d\	.	-kom	]]
*	*	*	*	*v	*v	*	*	*
!!LO:LB:g=original
=11	=11	=11	=11	=11	=11	=11	=11
2.AA/ 2.AAA/	[>4.f#:/	2.c#</: 2.G<:/	.	[>4.f#/	-bo-	ra-	.
.	4f#/]	.	.	(4f#/]	.	.	.
.	8e/	.	.	8e/)	.	.	.
*	*v	*v	*	*	*	*	*
=12	=12	=12	=12	=12	=12	=12
[>4.D\ [>4.DD\	[4.d/ [>4.D</	.	4d/	-dy.	-ny.	.
.	.	.	8r	.	.	.
4D\] 4DD\]	4d/] 4D</]	.	4r	.	.	.
8r	8r	.	8r	.	.	.
=13	=13	=13	=13	=13	=13	=13
*	*^	*	*	*	*	*
4D/ 4DD/	4b/	(>8g\L	.	4b\	Nie	Sam	.
.	.	8d|>\)	.	.	.	.	.
8D/ 8DD/	8b|/	8g\J	.	8b\	śpi	zaś	.
4D/ 4DD/	4b/	(>8g\L	.	4gg\	dzie-	ia-	.
.	.	8d|>\)	.	.	.	.	.
8D/ 8DD/	8b|/	8g\J	.	8b\	-cie	-ko	.
=14	=14	=14	=14	=14	=14	=14	=14
4D/ 4DD/	4a/	(>8f#\L	.	(8a/L	ie-	pta-	.
.	.	8d|>\)	.	8g#X/J)	.	.	.
8D/ 8DD/	8a|/	8f#\J	.	8a/	-go	-szek	.
4D/ 4DD/	4a/	(>8f#\L	.	4ff#\	dło-	pol-	.
.	.	8d|>\)	.	.	.	.	.
8D/ 8DD/	8a|/	8f#\J	.	8a/	-ni	-ny	.
=15	=15	=15	=15	=15	=15	=15	=15
4AA/	4g/	(>8e\L 8c#\	.	(8g/L	Nic	U-	.
.	.	8A|>\)	.	8f#/J)	.	.	.
8AA/	8g|/	8e\J 8c#\	.	8g/	się	-szedł	.
4AA/	4g/	(>8e\L 8c#\	.	(8b/L	ży-	wię-	.
.	.	8A|>\)	.	8a/J)	.	.	.
8AA/	8g|/	8e\J 8c#\	.	8g/	-we	-zów	.
!!LO:LB:g=original
=16	=16	=16	=16	=16	=16	=16	=16
4D/ 4DD/	4f#/	(>8d\L	.	(8f#/L	nie	za-	.
.	.	8A|>\)	.	8e/J)	.	.	.
8D/ 8DD/	8f#|/	8d\J	.	8f#/	u-	-wsze	.
4D/ 4DD/	4f#/	(>8d\L	.	4dd\	-chro-	wol-	.
.	.	8A\)	.	.	.	.	.
8D/ 8DD/	8f#|/	8d\J	.	8d/	-ni	-ny	.
=17	=17	=17	=17	=17	=17	=17	=17
4D/ 4DD/	4b/	(>8g\L	.	4b\	Nie	Sam	.
.	.	8d\)	.	.	.	.	.
8D/ 8DD/	8b|/	8g\J	.	8b\	śpi	zaś	.
4D/ 4DD/	4b/	(>8g\L	.	4gg\	dzie-	ia-	.
.	.	8d|>\)	.	.	.	.	.
8D/ 8DD/	8b|/	8g\J	.	8b\	-cie	-ko	.
=18	=18	=18	=18	=18	=18	=18	=18
*^	*	*	*	*	*	*	*
4D/ 4DD/	4.ryy	4a/	(>8f#\L	.	(8a\L	ie-	pta-	.
.	.	.	8d\)	.	8g#X\J)	.	.	.
!LO:N:n=2:vis=4	!	!	!	!	!	!	!	!
8D/ 4DD/	.	8a|/	8f#\J	.	8a\	-go	-szek	.
!	!	!	!LO:N:vis=4.	!	!LO:TX:a:i:t=poco ritenuto	!	!	!
4.GG/ 4.GGG/	4ryy	8.dd:/L	4=g\: 4d:\	.	8.dd\	dło-	pol-	.
.	.	16b/Jk	.	.	16b\	-ni	-ny	.
.	16EE/LL	16g/LL	8B\	.	16g#/	Nic	U-	.
.	16GG/JJ	16e/JJ	.	.	16e/	się	-szedł	.
*v	*v	*	*	*	*	*	*	*
=19	=19	=19	=19	=19	=19	=19	=19
[>4.AA/	4f#/	4.d/ 4.A</	.	4f#/	ży-	wię-	.
.	8f#/	.	.	8f#/	-we	-zów	.
!!LO:PB:g=original
4.AA/] 4.AAA/	4f#/	4.c#/ 4.G</	.	4f#/	nie	za-	.
.	8e/	.	.	8e/	u-	-wsze	.
*	*v	*v	*	*	*	*	*
=20	=20	=20	=20	=20	=20	=20
.	.	.	8qqe/	.	.	.
*	*^	*	*	*	*	*
4.D\ 4.DD\	8e/	[4.F#</	.	8d/	-chro-	wol-	.
.	[4d/	.	.	8d/	-ni	-lny	.
.	.	.	.	8r	.	.	.
8D\ 8DD\	8d/]	4F#</]	.	4r	.	.	.
4r	8r	.	.	.	.	.	.
.	8b|\	8ryy	.	8r	.	.	.
*	*v	*v	*	*	*	*	*
=21	=21	=21	=21	=21	=21	=21
.	(>16qqb/LL	.	.	.	.	.
.	16qqccn/JJ	.	.	.	.	.
4B\ 4G\ 4D\	8b\L	.	2.ryy	.	.	.
.	8a#X|\)	.	.	.	.	.
8B\ 8G\ 8D\	8b|\J	.	.	.	.	.
.	8qb/	.	.	.	.	.
4B\ 4G\ 4D\	(4gg\	.	.	.	.	.
8B\ 8G\ 8D\	8b\)	.	.	.	.	.
=22	=22	=22	=22	=22	=22	=22
.	>16qqa/LL	.	.	.	.	.
.	16qqb/JJ	.	.	.	.	.
4A\ 4F#\ 4D\	(8a\L	.	2.ryy	.	.	.
.	8g#X|\)	.	.	.	.	.
8A\ 8F#\ 8D\	8a|\J	.	.	.	.	.
.	8qa/	.	.	.	.	.
4A\ 4F#\ 4D\	(4ff#\	.	.	.	.	.
8A\ 8F#\ 8D\	8a\)	.	.	.	.	.
=23	=23	=23	=23	=23	=23	=23
.	16qqg/LL	.	.	.	.	.
.	16qqa/JJ	.	.	.	.	.
4G/ 4E/ 4C#/ 4AA/	(8g\L	.	2.ryy	.	.	.
.	8f#|\)	.	.	.	.	.
8G/ 8E/ 8C#/ 8AA/	8g|\J	.	.	.	.	.
.	8qg/	.	.	.	.	.
4G/ 4E/ 4C#/ 4AA/	8b\L	.	.	.	.	.
.	8a\	.	.	.	.	.
8G/ 8E/ 8C#/ 8AA/	8g\J	.	.	.	.	.
=24	=24	=24	=24	=24	=24	=24
.	16qqf#/LL	.	.	.	.	.
.	16qqg/JJ	.	.	.	.	.
4A\ 4F#\ 4D\	8f#\L	.	2.ryy	.	.	.
.	8e\	.	.	.	.	.
8A\ 8F#\ 8D\	8f#\J	.	.	.	.	.
.	8qf#/	.	.	.	.	.
4A\ 4F#\ 4D\	4dd\	.	.	.	.	.
8A\ 8F#\ 8D\	8d/	.	.	.	.	.
!!LO:LB:g=original
=25	=25	=25	=25	=25	=25	=25
.	16qqb/LL	.	.	.	.	.
.	16qqccn/JJ	.	.	.	.	.
4B\ 4G\ 4D\	(8b\L	.	2.ryy	.	.	.
.	8a#X|\)	.	.	.	.	.
8B\ 8G\ 8D\	8b|\J	.	.	.	.	.
.	8qb/	.	.	.	.	.
4B\ 4G\ 4D\	4gg\	.	.	.	.	.
8B\ 8G\ 8D\	8b\	.	.	.	.	.
=26	=26	=26	=26	=26	=26	=26
.	(>16qqa/LL	.	.	.	.	.
.	16qqb/JJ	.	.	.	.	.
*^	*	*	*	*	*	*
4A/ 4F#/ 4D/	4.ryy	8a\L	.	2.ryy	.	.	.
.	.	8g#X\	.	.	.	.	.
8A/ 8F#/ 8D/	.	8a\J	.	.	.	.	.
!LO:TX:t=P:problem:nieczytelny zapis akordów w tym takcie	!	!	!	!	!	!	!
4G/ 4E/ 4BB/	4.GG\	8.dd\L	.	.	.	.	.
.	.	16b\L	.	.	.	.	.
8A\	.	16g#\	.	.	.	.	.
.	.	16e\JJ)	.	.	.	.	.
*v	*v	*	*	*	*	*	*
=27	=27	=27	=27	=27	=27	=27
*	*^	*	*	*	*	*
!	!LO:N:vis=8.	!	!	!	!	!	!
[>4.AA/	8f#/L	4.d\ 4.A<\	.	2.ryy	.	.	.
.	16f#/L	.	.	.	.	.	.
.	16f#/	.	.	.	.	.	.
.	16f#/	.	.	.	.	.	.
.	16f#/JJ	.	.	.	.	.	.
4.AA/] 4.AAA/	4f#/	4.c#</ 4.G</	.	.	.	.	.
.	8e/	.	.	.	.	.	.
*	*v	*v	*	*	*	*	*
=28	=28	=28	=28	=28	=28	=28
!	!LO:TX:a:t=Da Capo	!	!	!	!	!
[>4.D\ [>4.DD\	[4.d/ [4.F#</	.	4.ryy	.	.	.
8D\] 8DD\]	8d/] 8F#</]	.	4ryy	.	.	.
8r	8r	.	.	.	.	.
=:|!	=:|!	=:|!	=:|!	=:|!	=:|!	=:|!
*>C	*>C	*	*>C	*	*	*
.	16qqa/LL	.	.	.	.	.
.	16qqb/	.	.	.	.	.
.	16qqcc#/JJ	.	.	.	.	.
8r	(8bT\	.	8ryy	.	.	.
=29||	=29||	=29||	=29||	=29||	=29||	=29||
*	*^	*	*	*	*	*
4r	8a|\)	4ryy	.	2.ryy	.	.	.
.	8r	.	.	.	.	.	.
!	!	!LO:N:vis=4	!	!	!	!	!
8AA/ 8AAA/	16e/LL	(<8c#</ 8G</	.	.	.	.	.
.	16g/JJ	.	.	.	.	.	.
8D\ 8DD\	8f#|/ 8d/	8A</)	.	.	.	.	.
4r	8r	4ryy	.	.	.	.	.
.	16qqa/LL	.	.	.	.	.	.
.	16qqb/	.	.	.	.	.	.
.	16qqcc#/JJ	.	.	.	.	.	.
.	(8bT\	.	.	.	.	.	.
!!LO:LB:g=original
=30	=30	=30	=30	=30	=30	=30	=30
4r	8a|</)|	4ryy	.	2.ryy	.	.	.
.	8r	.	.	.	.	.	.
!	!	!LO:N:vis=4	!	!	!	!	!
8AA/ 8AAA/	16e/LL	(<8c#</ 8G</	.	.	.	.	.
.	16g/JJ	.	.	.	.	.	.
!	!LO:N:vis=4	!	!	!	!	!	!
8D\ 8DD\	8f#/ 8d/	8A</)	.	.	.	.	.
4r	4r	4ryy	.	.	.	.	.
*	*v	*v	*	*	*	*	*
=31	=31	=31	=31	=31	=31	=31
!	!	!LO:DY:rj	!	!	!	!
8G/: 8E/: 8BB/: 8GG:/	8b/: 8g/: 8e:/	sf	2.ryy	.	.	.
8g\: 8e\: 8B\: 8G:\	8gg\: 8b\: 8g:\	.	.	.	.	.
8r	8r	.	.	.	.	.
8a\: 8f#\: 8d\: 8A:\	8ff#\: 8dd\: 8a:\	.	.	.	.	.
4r	8aT\L	.	.	.	.	.
.	16g#X\L	p	.	.	.	.
.	16a\JJ	.	.	.	.	.
=32	=32	=32	=32	=32	=32	=32
*	*^	*	*	*	*	*
4.AA/ 4.AAA/	8.b:/L	16e\: 16c#<\: 16G<:\	.	4r	.	.	.
.	.	16ryy	.	.	.	.	.
.	.	8ryy	.	.	.	.	.
.	16a/L	.	.	.	.	.	.
.	16g/	2ryy	.	8r	.	.	.
.	16e/JJ	.	.	.	.	.	.
4D\ 4DD\	4d</ 4F#</	.	.	4r	.	.	.
8r	8r	.	.	16f#/	Aż	.	.
.	.	.	.	16f#/	na	.	.
*	*v	*v	*	*	*	*	*
=33||	=33||	=33||	=33||	=33||	=33||	=33||
4B\ 4F#\ 4BB\	4dd/ 4f#/ 4d/	.	4dd\	jed-	.	.
8A#X\ 8G\ 8BB\	8cc#/ 8e/	.	8cc#\	-neý	.	.
4B\ 4F#\ 4BB\	4b/ 4d/	.	4b\	prze-	.	.
8B\ 8F#\ 8BB\	8f#/ 8d/	.	8f#/	-cież	.	.
=34	=34	=34	=34	=34	=34	=34
(4.A#X\ 4.E\ 4.BB\	4.g/ 4.c#/	sf	4.^^g/	ro-	.	.
!!LO:LB:g=original
!LO:TX:t=P:problem:brak zakończenia łuku	!	!	!	!	!	!
8B\ 8F#\ 8BB\)	8f#/ 8d/	.	8f#/	-li	.	.
8r	8r	.	8r	.	.	.
8B\ 8F#\ 8BB\	8f#/ 8d/	.	16f#/	za-	.	.
.	.	.	16f#/	-czął	.	.
=35	=35	=35	=35	=35	=35	=35
4B\ 4F#\ 4BB\	4dd/ 4f#/ 4d/	.	4dd\	pła-	.	.
8A#X\ 8G\ 8BB\	8cc#/ 8e/	.	8cc#\	-kać	.	.
4B\ 4F#\ 4BB\	4b/ 4d/	.	4b\	do	.	.
8B\ 8F#\ 8BB\	8f#/ 8d/	.	8f#/	nie-	.	.
=36	=36	=36	=36	=36	=36	=36
!	!LO:S:s=2:note:problem:note-level slur	!	!	!	!	!
(4.A#X\ 4.E\ 4.BB\	(4.g/ (>4.c#/	rf	4.g^^/	-wo-	.	.
8B\ 8F#\ 8BB\)	8f#/) 8d/)	.	8f#/	-li	.	.
8r	8r	.	8r	.	.	.
8An\ 8F#\ 8C#\	8a/ 8f#/ 8c#/	.	16a\	Aż	.	.
.	.	.	16b\	i	.	.
=37	=37	=37	=37	=37	=37	=37
4B\ 4G#X\ 4E#X\ 4C#\	4cc#/ 4g#X/ 4c#/	.	4cc#\	w kla-	.	.
8B\ 8G#\ 8E#\ 8C#\	8cc#/ 8g#/ 8c#/	.	8cc#\	-tkę	.	.
4B\ 4G#\ 4E#\ 4C#\	4cc#/ 4g#/ 4c#/	.	4cc#\	iuż	.	.
8B\ 8G#\ 8E#\ 8C#\	8b/ 8g#/ 8c#/	.	8b\	schwy-	.	.
=38	=38	=38	=38	=38	=38	=38
*	*^	*	*	*	*	*
4.A\ 4.F#\	(<4b/	4.f#\ 4.c#\	.	(4b\	-ta-	.	.
.	8a/)	.	.	8a\)	-ny	.	.
4.B\: 4.F#\: 4.BB:\	(<8dd:/L	4.f#\: 4.d:\	.	(8dd\L	Spie-	.	.
.	8cc#/	.	.	8cc#\J)	.	.	.
.	8b/J)	.	.	8b\	-wa	.	.
!!LO:PB:g=original
=39	=39	=39	=39	=39	=39	=39	=39
4.c#\ 4.A\ 4.E\	4cc#:/	4.a\: 4.e:\	.	4cc#\	wiel-	.	.
.	8cc#/	.	.	8cc#\	-bi	.	.
4.B\ 4.G#X\ 4.E\	4cc#/	4.g#X\ 4.c#\	.	4cc#\	swo-	.	.
.	8b/	.	.	8b\	-ie	.	.
=40	=40	=40	=40	=40	=40	=40	=40
4.A\ 4.F#\	4b/	4.f#\ 4.c#\	.	4b\	ra-	.	.
.	8a/	.	.	8a\	-ny	.	.
4.B\ 4.F#\ 4.D\ 4.BB\	8dd/L	4.f#\ 4.d\	.	8dd\L	spie-	.	.
.	8cc#/	.	.	8cc#\J	.	.	.
.	8b/J	.	.	8b\	-wa	.	.
=41	=41	=41	=41	=41	=41	=41	=41
4.c#\ 4.A\ 4.E\	8ff#:/L	4.a\: 4.e:\	.	8ff#\L	wiel-	.	.
.	8ee/	.	.	8ee\J	.	.	.
.	8cc#/J 8a/	.	.	8cc#\ 8a\	-bi	.	.
!	!	!LO:N:n=1:vis=4	!	!LO:N:vis=4.	!	!	!
4.E/ 4.EE/	4cc#/	4.cc#\ 4.g#X\ 4.d\	.	4cc#\	swo-	.	.
.	8b/	.	.	8b\	-ie	.	.
=42	=42	=42	=42	=42	=42	=42	=42
[4.E/ [>4.AA/	4.b/	[4.c#\	.	4.b\	ra-	.	.
8E/] 8AA/]	8a/L	8c#\]	.	8a/	-ny	.	.
4r	8g#X/	4r	.	8r	.	.	.
!	!LO:TX:a:i:t=Dal Segno\n senza re-\npetitione	!	!	!	!	!	!
!	!LO:TX:t=[segno]	!	!	!LO:TX:t=[segno]	!	!	!
!	!LO:TX:t=P:problem:segno nad kreską taktową	!	!	!LO:TX:t=P:problem:segno nad kreską taktową	!	!	!
.	8gn/J	.	.	8r	.	.	.
*	*v	*v	*	*	*	*	*
==	==	==	==	==	==	==
*-	*-	*-	*-	*-	*-	*-
!!!system-decoration: s1,{(s2,s3)}
!!!RDF**kern: | = vertical stroke
!!!RDF**kern: > = above
!!!RDF**kern: < = below
!!!EED: Andrzej Borzym
!!!EST: 2021-05-30
!!!AIN: 1 empty 1 vox
!!!ENC: Anastazja Marusiak
!!!END: 2021-05-11
